src/renderer/assets/svg/icon-menu.svg

<svg id="menu_icon" width="24" height="25" viewBox="0 0 24 25" fill="none" xmlns="http://www.w3.org/2000/svg">
<path d="M21.1875 4.30786H2.8125C2.70937 4.30786 2.625 4.39224 2.625 4.49536V5.99536C2.625 6.09849 2.70937 6.18286 2.8125 6.18286H21.1875C21.2906 6.18286 21.375 6.09849 21.375 5.99536V4.49536C21.375 4.39224 21.2906 4.30786 21.1875 4.30786ZM21.1875 18.9329H2.8125C2.70937 18.9329 2.625 19.0172 2.625 19.1204V20.6204C2.625 20.7235 2.70937 20.8079 2.8125 20.8079H21.1875C21.2906 20.8079 21.375 20.7235 21.375 20.6204V19.1204C21.375 19.0172 21.2906 18.9329 21.1875 18.9329ZM21.1875 11.6204H2.8125C2.70937 11.6204 2.625 11.7047 2.625 11.8079V13.3079C2.625 13.411 2.70937 13.4954 2.8125 13.4954H21.1875C21.2906 13.4954 21.375 13.411 21.375 13.3079V11.8079C21.375 11.7047 21.2906 11.6204 21.1875 11.6204Z" fill="#101921"/>
</svg>

<svg xmlns="http://www.w3.org/2000/svg" width="24" height="25" fill="none" viewBox="0 0 24 25"><path fill="#101921" d="M21.188 4.308H2.813a.188.188 0 0 0-.188.187v1.5c0 .103.084.188.188.188h18.375a.188.188 0 0 0 .187-.188v-1.5a.188.188 0 0 0-.187-.187m0 14.625H2.813a.188.188 0 0 0-.188.187v1.5c0 .104.084.188.188.188h18.375a.188.188 0 0 0 .187-.188v-1.5a.188.188 0 0 0-.187-.187m0-7.313H2.813a.188.188 0 0 0-.188.188v1.5c0 .103.084.187.188.187h18.375a.188.188 0 0 0 .187-.187v-1.5a.188.188 0 0 0-.187-.188"/></svg>
